X:6
T:Turriff Hunt
C:Robert Petrie
S:Petrie's Collection of Strathspey Reels and Country Dances &c., 1790
Z:Steve Wyrick , 3/5/04
N:Petrie's First Collection, page 4
L:1/8
M:C
R:Strathspey
K:Gm
G<Gd>c A<cd>g |f=e/f/ d<f c<fA>F|G<GTd>c A>cd<g|f<df>A BGG2  :|
GgTg>f d>f Tg2|d>fc>f     B>fA<F|GgTg>f  d>fg>a|f<df>A B<GG>A |
GgTg>f df  Tg2|d>fc>f     B>fA<F|G<GTd>c A>cd<g|f<df>A B<G G2|]
